src/media/icons/methodology/GraphicTablet.svg

<?xml version="1.0" encoding="UTF-8"?>
<svg width="80px" height="61px" viewBox="0 0 80 61" version="1.1" xmlns="http://www.w3.org/2000/svg" xmlns:xlink="http://www.w3.org/1999/xlink">
    <title>graphic-tablet</title>
    <g id="✨Symbols" stroke="none" stroke-width="1" fill="none" fill-rule="evenodd">
        <g id="01-Base-/-Ic-/-GraphicTablet" transform="translate(0.000000, -10.000000)" fill="#000000" fill-rule="nonzero">
            <g id="graphic-tablet" transform="translate(0.000000, 10.000000)">
                <path d="M45.7042188,32.1048438 L40.9757812,36.833125 C40.518125,37.2907813 40.518125,38.0328125 40.9757812,38.4903125 C41.2046875,38.7192188 41.5045312,38.8335938 41.8045312,38.8335938 C42.104375,38.8335938 42.404375,38.7192188 42.6332812,38.4903125 L47.3617187,33.7620312 C47.819375,33.304375 47.819375,32.5623438 47.3617187,32.1048438 C46.9040625,31.6473438 46.1620312,31.6471875 45.7042187,32.1048438 L45.7042188,32.1048438 Z" id="Path"></path>
                <path d="M68.5048437,4.33359375 L67.768125,5.0703125 C66.8685938,4.7884375 65.8640625,5.00796875 65.1629688,5.70890625 L35.7959375,35.0759375 C34.025625,36.84625 32.0167187,38.3575 29.8253125,39.5676563 C29.1421875,39.945 28.6039062,40.516875 28.2684375,41.2214063 L23.2192187,51.8275 C22.8401562,52.62375 22.9940625,53.5734375 23.5979687,54.21125 L22.70125,55.1079688 C22.2435937,55.565625 22.2435937,56.3076563 22.70125,56.7651563 C23.1589062,57.2228125 23.9009375,57.2228125 24.3584375,56.7651563 L25.2554687,55.868125 C25.659375,56.2504688 26.1875,56.45375 26.72375,56.45375 C27.0342187,56.45375 27.346875,56.38625 27.63875,56.2473437 L38.2448438,51.198125 C38.949375,50.8626563 39.52125,50.3242187 39.8984375,49.6410938 C41.1085937,47.4495312 42.62,45.4407813 44.3901562,43.670625 L44.3903125,43.670625 L73.7573437,14.3034375 C74.4604687,13.6001562 74.6717187,12.5896875 74.3940625,11.7003125 L75.1323437,10.9620312 C76.9595312,9.1346875 76.9596875,6.16140625 75.1325,4.33390625 C73.305625,2.50640625 70.3323437,2.50609375 68.5048437,4.33359375 Z M73.4754688,5.9909375 C74.3890625,6.90453125 74.3889062,8.3909375 73.4753125,9.30453125 L72.9459375,9.83390625 L69.6323438,6.52046875 L70.161875,5.9909375 C71.0751563,5.07734375 72.561875,5.0771875 73.4754688,5.9909375 L73.4754688,5.9909375 Z M26.7653125,54.0673438 L25.3990625,52.7010938 L30.0220312,42.9901563 L36.4760937,49.4442188 L26.7653125,54.0673438 Z M72.1001562,12.6460938 L42.733125,42.0132812 L42.7332812,42.0132812 C40.9815625,43.7648437 39.4659375,45.733125 38.2148437,47.8685937 L31.5978125,41.2515625 C33.733125,40.000625 35.7014062,38.4851562 37.453125,36.7334375 L66.8201562,7.36640625 C66.9140625,7.2725 67.0639062,7.27109375 67.1598437,7.3634375 C67.2025,7.405 72.0228125,12.225 72.1054687,12.3098437 C72.1060937,12.3104687 72.1065625,12.3109375 72.1071875,12.3114062 C72.1940625,12.4064062 72.1923437,12.5540625 72.1001562,12.6460937 L72.1001562,12.6460938 Z" id="Shape"></path>
                <path d="M76.079375,0.0125 L3.92046875,0.0125 C1.75875,0.0125 0,1.77125 0,3.93296875 L0,56.691875 C0,58.8535937 1.75875,60.6123437 3.92046875,60.6123437 L76.079375,60.6123437 C78.24125,60.6123437 80,58.8535938 80,56.691875 L80,3.93296875 C80,1.77125 78.24125,0.0125 76.079375,0.0125 Z M77.65625,56.6920312 C77.65625,57.5614063 76.9489062,58.26875 76.079375,58.26875 L3.92046875,58.26875 C3.05109375,58.26875 2.34375,57.5614063 2.34375,56.6920312 L2.34375,3.93296875 C2.34375,3.06359375 3.05109375,2.35625 3.92046875,2.35625 L76.079375,2.35625 C76.94875,2.35625 77.65625,3.06359375 77.65625,3.93296875 L77.65625,56.6920312 Z" id="Shape"></path>
                <path d="M12.8070313,7.17015625 L8.37203125,7.17015625 C7.01390625,7.17015625 5.90890625,8.27515625 5.90890625,9.63328125 L5.90890625,19.9717187 C5.90890625,21.33 7.01390625,22.435 8.37203125,22.435 L12.8070313,22.435 C14.1653125,22.435 15.2703125,21.33 15.2703125,19.9717188 L15.2703125,9.63328125 C15.2701563,8.275 14.1653125,7.17015625 12.8070313,7.17015625 L12.8070313,7.17015625 Z M12.9264062,19.9717188 C12.9264062,20.0375 12.8728125,20.09125 12.806875,20.09125 L8.37203125,20.09125 C8.30625,20.09125 8.25265625,20.0376563 8.25265625,19.9717188 L8.25265625,9.63328125 C8.25265625,9.5675 8.30625,9.51390625 8.37203125,9.51390625 L12.8070313,9.51390625 C12.8729688,9.51390625 12.9265625,9.5675 12.9265625,9.63328125 L12.9265625,19.9717188 L12.9264062,19.9717188 Z" id="Shape"></path>
                <path d="M12.8070313,38.1901563 L8.37203125,38.1901563 C7.01390625,38.1901563 5.90890625,39.2951563 5.90890625,40.6534375 L5.90890625,50.991875 C5.90890625,52.35 7.01390625,53.455 8.37203125,53.455 L12.8070313,53.455 C14.1653125,53.455 15.2703125,52.35 15.2703125,50.991875 L15.2703125,40.6534375 C15.2701563,39.295 14.1653125,38.1901563 12.8070313,38.1901563 Z M12.9264062,50.9917188 C12.9264062,51.0575 12.8728125,51.1110938 12.806875,51.1110938 L8.37203125,51.1110938 C8.30625,51.1110938 8.25265625,51.0575 8.25265625,50.9917188 L8.25265625,40.6532813 C8.25265625,40.5875 8.30625,40.53375 8.37203125,40.53375 L12.8070313,40.53375 C12.8729688,40.53375 12.9265625,40.5873438 12.9265625,40.6532813 L12.9265625,50.9917188 L12.9264062,50.9917188 Z" id="Shape"></path>
                <path d="M10.5895313,25.6285938 C8.00859375,25.6285938 5.90875,27.7282813 5.90875,30.309375 C5.90875,32.8904688 8.0084375,34.9901563 10.5895313,34.9901563 C13.170625,34.9901563 15.2703125,32.8904688 15.2703125,30.309375 C15.2703125,27.7282813 13.1704688,25.6285938 10.5895313,25.6285938 L10.5895313,25.6285938 Z M10.5895313,32.6464063 C9.3009375,32.6464063 8.2525,31.598125 8.2525,30.309375 C8.2525,29.020625 9.30078125,27.9723438 10.5895313,27.9723438 C11.8782813,27.9723438 12.9265625,29.020625 12.9265625,30.309375 C12.9265625,31.598125 11.878125,32.6464063 10.5895313,32.6464063 Z" id="Shape"></path>
                <path d="M72.6467188,17.890625 C71.999375,17.890625 71.4748438,18.4153125 71.4748438,19.0625 L71.4748438,50.1273437 C71.4748438,50.6698437 71.0335938,51.1110937 70.4910938,51.1110937 L41.1328125,51.1110937 C40.4854688,51.1110937 39.9609375,51.6357812 39.9609375,52.2829687 C39.9609375,52.9301562 40.4854688,53.4548437 41.1328125,53.4548437 L70.49125,53.4548437 C72.3259375,53.4548437 73.81875,51.9620313 73.81875,50.1273437 L73.81875,19.0625 C73.81875,18.4153125 73.2940625,17.890625 72.6467188,17.890625 Z" id="Path"></path>
                <path d="M59.09,9.51390625 C59.7373437,9.51390625 60.261875,8.98921875 60.261875,8.34203125 C60.261875,7.69484375 59.7373437,7.17015625 59.09,7.17015625 L22.6454687,7.17015625 C20.810625,7.17015625 19.3179687,8.66296875 19.3179687,10.4976562 L19.3179687,50.1273437 C19.3179687,50.7745312 19.8426562,51.2992187 20.4898437,51.2992187 C21.1370312,51.2992187 21.6617187,50.7745312 21.6617187,50.1273437 L21.6617187,10.4976562 C21.6617187,9.95515625 22.103125,9.51390625 22.6454687,9.51390625 L59.09,9.51390625 Z" id="Path"></path>
            </g>
        </g>
    </g>
</svg>

<?xml version="1.0" encoding="utf-8"?>
<!-- Generator: Adobe Illustrator 23.0.6, SVG Export Plug-In . SVG Version: 6.00 Build 0)  -->
<svg version="1.1" id="Calque_1" xmlns="http://www.w3.org/2000/svg" xmlns:xlink="http://www.w3.org/1999/xlink" x="0px" y="0px"
	 viewBox="0 0 80 61" style="enable-background:new 0 0 80 61;" xml:space="preserve">
<style type="text/css">
	.st0{fill:#7C54FB;}
	.st1{fill:#2E157D;}
	.st2{fill:#170A3F;}
	.st3{fill:#5B29FA;}
	.st4{fill:#441FBB;}
	.st5{fill:#9D7FFC;}
	.st6{fill:#BDA9FD;}
</style>
<title>graphic-tablet</title>
<g>
	<g transform="translate(0.000000, -10.000000)">
		<g id="graphic-tablet" transform="translate(0.000000, 10.000000)">
			<path id="Path" class="st0" d="M45.7,32.1L41,36.8c-0.5,0.5-0.5,1.2,0,1.7c0.2,0.2,0.5,0.3,0.8,0.3c0.3,0,0.6-0.1,0.8-0.3
				l4.7-4.7c0.5-0.5,0.5-1.2,0-1.7C46.9,31.6,46.2,31.6,45.7,32.1L45.7,32.1z"/>
			<path id="Shape" class="st1" d="M68.5,4.3l-0.7,0.7c-0.9-0.3-1.9-0.1-2.6,0.6L35.8,35.1c-1.8,1.8-3.8,3.3-6,4.5
				c-0.7,0.4-1.2,0.9-1.6,1.7l-5,10.6c-0.4,0.8-0.2,1.7,0.4,2.4l-0.9,0.9c-0.5,0.5-0.5,1.2,0,1.7c0.5,0.5,1.2,0.5,1.7,0l0.9-0.9
				c0.4,0.4,0.9,0.6,1.5,0.6c0.3,0,0.6-0.1,0.9-0.2l10.6-5c0.7-0.3,1.3-0.9,1.7-1.6c1.2-2.2,2.7-4.2,4.5-6h0l29.4-29.4
				c0.7-0.7,0.9-1.7,0.6-2.6l0.7-0.7c1.8-1.8,1.8-4.8,0-6.6C73.3,2.5,70.3,2.5,68.5,4.3z M73.5,6c0.9,0.9,0.9,2.4,0,3.3l-0.5,0.5
				l-3.3-3.3L70.2,6C71.1,5.1,72.6,5.1,73.5,6L73.5,6z M26.8,54.1l-1.4-1.4L30,43l6.5,6.5L26.8,54.1z M72.1,12.6L42.7,42h0
				c-1.8,1.8-3.3,3.7-4.5,5.9l-6.6-6.6c2.1-1.3,4.1-2.8,5.9-4.5L66.8,7.4c0.1-0.1,0.2-0.1,0.3,0c0,0,4.9,4.9,4.9,4.9c0,0,0,0,0,0
				C72.2,12.4,72.2,12.6,72.1,12.6L72.1,12.6z"/>
			<path class="st2" d="M76.1,0H3.9C1.8,0,0,1.8,0,3.9v52.8c0,2.2,1.8,3.9,3.9,3.9h72.2c2.2,0,3.9-1.8,3.9-3.9V3.9
				C80,1.8,78.2,0,76.1,0z M77.7,56.7c0,0.9-0.7,1.6-1.6,1.6H3.9c-0.9,0-1.6-0.7-1.6-1.6V3.9c0-0.9,0.7-1.6,1.6-1.6h72.2
				c0.9,0,1.6,0.7,1.6,1.6V56.7z"/>
			<path class="st3" d="M12.8,7.2H8.4C7,7.2,5.9,8.3,5.9,9.6V20c0,1.4,1.1,2.5,2.5,2.5h4.4c1.4,0,2.5-1.1,2.5-2.5V9.6
				C15.3,8.3,14.2,7.2,12.8,7.2L12.8,7.2z M12.9,20c0,0.1-0.1,0.1-0.1,0.1H8.4c-0.1,0-0.1-0.1-0.1-0.1V9.6c0-0.1,0.1-0.1,0.1-0.1
				h4.4c0.1,0,0.1,0.1,0.1,0.1L12.9,20L12.9,20z"/>
			<path class="st3" d="M12.8,38.2H8.4c-1.4,0-2.5,1.1-2.5,2.5V51c0,1.4,1.1,2.5,2.5,2.5h4.4c1.4,0,2.5-1.1,2.5-2.5V40.7
				C15.3,39.3,14.2,38.2,12.8,38.2z M12.9,51c0,0.1-0.1,0.1-0.1,0.1H8.4c-0.1,0-0.1-0.1-0.1-0.1V40.7c0-0.1,0.1-0.1,0.1-0.1h4.4
				c0.1,0,0.1,0.1,0.1,0.1L12.9,51L12.9,51z"/>
			<path class="st1" d="M10.6,25.6c-2.6,0-4.7,2.1-4.7,4.7S8,35,10.6,35s4.7-2.1,4.7-4.7S13.2,25.6,10.6,25.6L10.6,25.6z M10.6,32.6
				c-1.3,0-2.3-1-2.3-2.3c0-1.3,1-2.3,2.3-2.3s2.3,1,2.3,2.3C12.9,31.6,11.9,32.6,10.6,32.6z"/>
			<path class="st0" d="M72.6,17.9c-0.6,0-1.2,0.5-1.2,1.2v31.1c0,0.5-0.4,1-1,1H41.1c-0.6,0-1.2,0.5-1.2,1.2c0,0.6,0.5,1.2,1.2,1.2
				h29.4c1.8,0,3.3-1.5,3.3-3.3V19.1C73.8,18.4,73.3,17.9,72.6,17.9z"/>
			<path class="st0" d="M59.1,9.5c0.6,0,1.2-0.5,1.2-1.2s-0.5-1.2-1.2-1.2H22.6c-1.8,0-3.3,1.5-3.3,3.3v39.6c0,0.6,0.5,1.2,1.2,1.2
				c0.6,0,1.2-0.5,1.2-1.2V10.5c0-0.5,0.4-1,1-1H59.1z"/>
		</g>
	</g>
</g>
<rect x="-113.8" y="100.1" width="25.7" height="25.7"/>
<rect x="-76" y="100.1" class="st2" width="25.7" height="25.7"/>
<rect x="-35.6" y="100.1" class="st1" width="25.7" height="25.7"/>
<rect x="-0.5" y="100.1" class="st4" width="25.7" height="25.7"/>
<rect x="34.7" y="100.1" class="st3" width="25.7" height="25.7"/>
<rect x="78.3" y="100.1" class="st0" width="25.7" height="25.7"/>
<rect x="117.6" y="100.1" class="st5" width="25.7" height="25.7"/>
<rect x="167.7" y="100.1" class="st6" width="25.7" height="25.7"/>
</svg>
